X: 2010
T: New Bore Versale.
%R: bourr\'ee
B: Henry Playford "Apollo's Banquet", London 1687 (5th Edition)
F: https://archive.org/details/apollosbanquetco01rugg
Z: 2017 John Chambers <jc:trillian.mit.edu>
M: C|
L: 1/8
K: Gm
% - - - - - - - - - -
d2 |\
g2a2 bag2 | fedc B2d2 | e2cd A2d2 | B2G2 G2 :: dc |\
dcB2 f2d2 | c2d2 e3f | g2c2 c>dcB |
A2F2 F2B>A | G2g>f e3c | f2f2 f2ed |\
=B3B c3d | e2c2 f>gfe | d2g2 g3^f | g2 g4 |]
% - - - - - - - - - -

%%sep 1 1 500
%%sep 1 1 500

